build/documents/FileRubleSolid.svg

<svg xmlns="http://www.w3.org/2000/svg" fill="none" viewBox="0 0 24 24" focusable="false"><path d="M0 0H24V24H0z"/><path fill="#74767B" fill-rule="evenodd" d="M17.6499 3.3501C19.3066 3.3501 20.6499 4.69336 20.6499 6.3501L20.6499 16.3501C20.6499 18.0068 19.3066 19.3501 17.6499 19.3501L9.6499 19.3501C7.99316 19.3501 6.6499 18.0068 6.6499 16.3501L6.6499 6.3501C6.6499 4.69336 7.99316 3.3501 9.6499 3.3501L17.6499 3.3501ZM11.3008 6.05029C10.9419 6.05029 10.6509 6.34131 10.6509 6.7002L10.6509 11.3945L9.95557 11.3945C9.59619 11.3945 9.30518 11.6855 9.30518 12.0444C9.30518 12.4036 9.59619 12.6946 9.95557 12.6946L10.6509 12.6946L10.6509 13.7429L9.94971 13.7429C9.59033 13.7429 9.29932 14.0339 9.29932 14.3928C9.29932 14.752 9.59033 15.043 9.94971 15.043L10.6509 15.043L10.6509 15.8906C10.6509 16.2495 10.9419 16.5405 11.3008 16.5405C11.6602 16.5405 11.9512 16.2495 11.9512 15.8906L11.9512 15.043L14.9707 15.043C15.3296 15.043 15.6206 14.752 15.6206 14.3928C15.6206 14.0339 15.3296 13.7429 14.9707 13.7429L11.9512 13.7429L11.9512 12.6946L14.6289 12.6946C16.4634 12.6946 17.9512 11.207 17.9512 9.37231C17.9512 7.5376 16.4634 6.05029 14.6289 6.05029L11.3008 6.05029ZM14.6289 11.3945L11.9512 11.3945L11.9512 7.3501L14.6289 7.3501C15.7456 7.3501 16.6509 8.25562 16.6509 9.37231C16.6509 10.4893 15.7456 11.3945 14.6289 11.3945ZM4 9.3501C4 8.99121 4.29102 8.7002 4.6499 8.7002C5.00879 8.7002 5.2998 8.99121 5.2998 9.3501L5.2998 18.75C5.2998 19.8271 6.17285 20.7002 7.25 20.7002L15.6499 20.7002C16.0088 20.7002 16.2998 20.9912 16.2998 21.3501C16.2998 21.709 16.0088 22 15.6499 22L7.25 22C5.45508 22 4 20.5449 4 18.75L4 9.3501Z"/></svg>

<svg xmlns="http://www.w3.org/2000/svg" fill="none" viewBox="0 0 24 24" focusable="false"><path fill="#74767B" fill-rule="evenodd" d="M17.64 3.35c1.66 0 3 1.34 3 3v10c0 1.65-1.34 3-3 3h-8c-1.65 0-3-1.35-3-3v-10c0-1.66 1.35-3 3-3zm-6.34 2.7c-.36 0-.65.29-.65.65v4.69h-.7c-.36 0-.65.29-.65.65s.29.65.65.65h.7v1.05h-.71c-.35 0-.65.29-.65.65s.3.65.65.65h.71v.85c0 .35.29.65.65.65s.65-.3.65-.65v-.85h3.02c.35 0 .65-.29.65-.65s-.3-.65-.65-.65h-3.02v-1.05h2.67c1.84 0 3.33-1.49 3.33-3.32a3.32 3.32 0 0 0-3.33-3.32zm3.32 5.34h-2.67V7.35h2.67c1.12 0 2.03.9 2.03 2.02 0 1.11-.91 2.02-2.03 2.02M4 9.35c0-.36.29-.65.64-.65.36 0 .65.29.65.65v9.4c0 1.07.88 1.95 1.96 1.95h8.39c.36 0 .65.29.65.65 0 .35-.29.65-.65.65H7.25A3.25 3.25 0 0 1 4 18.75z"/></svg>
